X:1
T:Or my rendez
T:Guillaume le Heurteur
T:Source : 29 Chansons musicales à 4 parties---Paris---P.Attaignant---1530. Editor : André Vierendeels (15/01/18). Notes : Original clefs : G2, C1 + C2 (ftom m 27), C3, F3 Original note values have been halved Editorial accidentals above the stave  
T:Or my rendez
T:©
T:©
T:©
T:©
T:©
T:©
T:©
C:Guillaume le Heurteur
Z:©
%%score [ 1 2 3 4 ]
L:1/8
Q:1/4=120
M:2/2
K:C
V:1 treble nm="Soprano" snm="S"
V:2 treble nm="Alto" snm="A"
V:3 treble-8 nm="Tenor" snm="T"
V:4 bass nm="Bass" snm="B"
V:1
 z8 | z8 | f4 e2 d2 | d2 c2 B2 A2 | G4 z4 | z2 f2 e2 d2 | d3 c B2 A2 | G2 c2 cdec | dc f2 e2 d2 | %9
w: ||Or, my ren-|dez moy Ka- ro-|lus,|or, my ren-|dez moy Ka- ro-|lus, tant bel- le ieu- ne|fil- le, or my ren-|
 d2 c2 B2 A2 | G2 c2 BA cB | c4 e2 ee | e2 d2 cdef | d2 e3 d c2- | c2 B2 c2 z2 | G2 GG A2 A2 | %16
w: dez moy Ka- ro-|lus, n'en par- * lez _|plus, mon pè- re'a-|voit ung iar- * * *||* di- net,|mon pè- re'a- voit ung|
 B2 B2 c4 | z4 e2 c2 | d2 B2 c2 A2 | B2 G2 z2 c2 | cdec d2 c2 | z2 f2 e2 d2 | d2 c2 B2 A2 | %23
w: iar- di- net,|cou- vert|de ro- s'et de|mu- guet, tant|bel- le ieu- ne fil- le,|or, my ren-|dez moy Ka- ro-|
 G2 c2 cB BA | c8 | z4 z2 G2 | GG G2 G2 A2 | B2 c2 z2 e2 | c2 d2 B2 c2 | A2 B2 G2 c2 | cdec d2 c2 | %31
w: lus, n'en par- * lez _|plus,|le|filz du roy si um-|bra- geoit, u-|ne tant bel- 'a-|my- e'a- voit tant|bel- le ieu- ne fil- le,|
 z8 | z2 f2 e2 d2 | d2 c2 B2 A2 | G2 c2 cB BA | c4 z4 | z2 c2 de fd | e2 z2 G2 GG | G2 G2 A2 B2 | %39
w: |or, my ren-|dez moy Ka- ro-|lus, n'en par- * lez _|plus,|n'en par- * lez _|plus, tou- tes les|foys qu'il la bai-|
 c4 z4 | G2 GG G2 G2 | A2 B2 c4 | z4 z2 e2 | c2 d2 B2 c2 | A2 B2 G2 e2 | c2 d2 B2 c2 | %46
w: soit,|tou- tes les foys qu'il|la bai- soit,|la|po- vre fil- le|si trem- bloit, la|po- vre fil- le|
 A2 B2 G2 A2 | AAGA B2 c2 | z4 z2 c2 | cdec dc f2 | e3 d d2 c2 | B2 A2 G2 G2 | GGAA B2 G2 | z4 f4 | %54
w: si trem- bloit, tant|bel- le ieu- ne fil- le,|tant|bel- le ieu- ne fil- le, or,|my ren- dez moy|Ka- ro- lus, tant|bel- le jeu- ne fil- le,|or,|
 e2 d2 d2 c2 | B2 A2 G4 | z4 z2 f2 | e2 d2 d3 c | B2 A2 G2 c2 | cdec dc f2 | e2 d2 d2 c2 | %61
w: my ren- dez moy|Ka- ro- lus,|or,|my ren- dez moy|Ka- ro- lus, tant|bel- le jeu- ne fil- le, tant|my ren- dez moy|
 B2 A2 G2 c2 | BA cB c2 c2 | BA cB c4- | c8 |] %65
w: Ka- ro- lus, n'en|par- * lez _ plus, n'en|par _ lez _ plus.|_|
V:2
 z8 | z8 | z2 c4 B2 | A2 G2 G2 F2 | E2 C2 G2 AA | BG A3 G G2- | G2 F2 G2 E2 | EFGE A2 G2- | %8
w: ||Or, my|ren- dez moy Ka-|ro- lus, tant bel- le|ieu- ne fil le, tant|_ bel- le ieu-|ne _ _ _ _ fil-|
 GF/E/ F2 G2 G2 | F2 E2 D2 F2 | G3 G G2 G2 | A2 G2 E4 | G2 GG E2 C2 | G3 F E2 F2 | D2 G2 GG E2 | %15
w: * * * le, or, my|ren- dez moy Ka-|* ro- lus, nen|par- lons plus,|mon pè- re'a- voit ung|iar- * * di-|net, mon pè- re'a- voit|
 C2 G4 F2 | G4 z4 | z4 z2 A2 | F2 G2 E2 F2 | D2 E2 C2 A,2 | AAGG F2 G2 | G2 FF G2 G2 | %22
w: ung iar- di-|net,|cou-|vert de ro- s'et|de mu- guet, tant|bel- le ieu- ne fil- le,|or, my ren- dez moy|
 F2 E2 G2 FE | D2 G2 A2 G2 | E2 C2 CC C2 | D2 E2 F2 G2 | z2 C3 C C2 | B,2 G,2 A,B,CD | E2 D4 A2- | %29
w: Ka- ro- lus, n'en _|par- * * lez|plus, le filz du roy|si um- bra- geoit,|u- ne tant|bel- le'a- my- * * *|e'a- voit, a|
 A2 G2 E2 E2 | GFGE F4 | E4 z2 c2 | B2 A2 G3 G | F2 E2 D2 E2 | D2 C2 G4 | z2 E2 FGAF | %36
w: _ _ voit tant|bel- le ieu- ne fil-|le, or,|my ren- des moy|Ka- ro- lus, n'en|par- lez plus,|n'en par- * * *|
 G2 A2 F2 z2 | E2 EE E2 D2 | EFGE F2 G2 | C4 D2 DD | C4 B,2 C2 | A,2 G,2 G4 | E2 F2 D2 z2 | %43
w: * lez plus,|tou- tez les foys qu'il|la bai- soit, tou- tes les|foys- qu'il la bai-|soit, tou- tes|les foys qu'il|la bai- soit,|
 A2 F2 G2 E2 | F2 D2 E2 C2- | C2 F2 GGGG | F2 D2 E2 F2 | FFEF G2 E2 | C2 DE F2 E2 | B,2 C4 B,2 | %50
w: la po- vre fil-|le si trem- bloit,|_ la po- vre fil- le|si trem- bloit, tant|bel- le ieu- ne fil- le,|tant bel- le ieu- ne|fil- * *|
 C2 c2 B2 A2 | G2 F2 E2 E2 | D2 C2 B,A,B,G, | A,2 G,2 z2 c2- | c2 B2 A2 G2 | G2 F2 E2 C2 | %56
w: le, or, my ren-|dez moy Ka- ro-|lys, tant bel- le jeu- ne|fil- le, or,|_ my ren- dez|moy Ka- ro- lus,|
 G2 AA BG A2- | AG G4 F2 | G2 E2 EFGE | A2 G3 F/E/ F2 | G2 G2 F2 E2 | D2 F2 G3 G | G2 G2 A2 G2 | %63
w: tant bel- le jeu- ne fil-||le, tant bel- le jeu- ne|fil- * * * *|le, or, my ren-|dez moy Ka- ro-|lus, n'en par- lez|
 G2 G2 A2 G2 | E8 |] %65
w: olus, n'en par- lez|plus.|
V:3
 z4 z2 f2 | e2 d2 d2 c2 | B2 A2 G4 | z4 z2 c2 | cdec dc f2 | e2 d2 c2 B2 | A2 A2 G2 z2 | z4 f2 e2 | %8
w: Or,|my ren- dez moy|Ka- ro- lus,|tant|bel- le ieu- ne fil- le, or,|my ren- dez moy|Ka- ro- lus,|or, my|
 d2 d2 c2 B2 | A2 G4 A2 | cdef d2 d2 | c4 z4 | G2 GG A2 A2 | B2 B2 c3 B/A/ | G4 e2 ee | %15
w: rendez moy Ka- ro-|lus, n'en par-|* * * * * lez|plus,|mon pè- re'a- voit ung|iar- di- net, _ _|_ mon père'a- *|
 e2 d2 e2 c2 | d4 e2 c2 | d2 B2 c2 A2 | B2 G2 z4 | z2 c2 cdec | f2 e2 z2 e2 | e2 d2 c2 B2 | %22
w: voit ung iar- di-|net, cou- vert|de ro- s'et de|mu- guet,|tant bel- l'et ieu- ne|fil- le, or,|my ren dez moy|
 A2 A2 G2 d2- | dc e2 d2 d2 | c4 G2 GG | G2 G2 A2 B2 | cdef g2 fe | d2 e2 z2 g2 | a2 f2 g2 e2 | %29
w: Ka- ro- lus, n'en|_ par- * * lez|plus, le filz du|roy si um- bra-|geoit _ _ _ _ _ _|_ _ u-|ne tant bel- le'a-|
 f2 d2 c4 | z4 z2 c2 | cdec d2 c2 | z8 | z8 | z2 f2 e2 d2 | d2 c2 B2 A2 | G2 c2 BA cB | c4 z4 | %38
w: my- e'a- voit|tant|bel- le ieu- ne fil- le,|||or my ren-|dez moy Ka- ro-|lus, nen par- * lez _|plus,|
 c2 cc c2 d2 | e2 f2 g4 | e2 ee d2 e2 | f2 d2 e2 e2 | c2 d2 B2 c2 | A2 B2 G4 | z4 z2 e2 | %45
w: tou- tes les foys qu'il|la bai- soit,|tou- tes le foys qu'il|la bai- soit, la|po- vre fil- le|si trem- bloit,|la|
 f2 f2 e3 d | c2 B2 c2 c2 | cdec d2 c2 | A2 AB c2 A2- | A2 G4 F2 | G4 z4 | z4 z4 | z2 f2 e2 d2 | %53
w: po- vre fil- le|si trem- bloit, tant|bel- le ieu- ne fil- le,|tant bel- le ieu- ne|_ fil- *|le,|||
 d2 c2 B2 A2 | G4 z4 | z2 G2 GABG | AG f2 e2 d2 | c2 B2 A2 A2 | G2 z2 z4 | f2 e2 d2 d2 | %60
w: |||||||
 c2 B2 A2 G2- | G2 c2 cdef | d2 d2 c2 e2 | d2 d2 c4- | c8 |] %65
w: |||||
V:4
 C4 B,2 A,2 | G,2 G,2 F,2 E,2 | D,2 z2 z4 | D,2 E,F, G,E, F,2 | C,2 C2 B,2 A,2 | G,2 D,2 E,2 G,2 | %6
w: Or, my ren-|dez moy Ka- ro-|lus,|tant bel- le ieu- ne fil-|le, or, my ren-|dez moy Ka- ro-|
 D,4 z2 C,2 | C,D,E,C, F,2 C,2 | z2 D,2 E,F,G,E, | F,2 C,2 G,2 F,2 | E,2 C,2 G,4 | C,4 C2 CC | %12
w: lus, tant|bel- le ieu- ne fil- le,|tant bel- le ie- ne|fil- le, n'en par-|* * lez|plus, mon pè- re'a-|
 C2 B,2 C2 A,2 | G,4 z4 | z4 C2 CC | C2 B,2 C2 A,2 | G,4 z2 A,2 | F,2 G,2 E,2 F,2 | %18
w: voit ung iar- di-|net,|mon pè- re'a-|voit ung iar- di-|net, cou-|vert de ro- s'et|
 D,2 E,2 C,2 F,2 | G,2 E,2 A,3 G, | F,2 C,2 z2 C,2 | G,2 D,2 E,F,G,E, | F,2 C,2 E,2 F,2 | %23
w: de mu- guet, tant|bel- le ieu- ne|fil- le, or|my ren- dez _ _ _|_ moy Ka- ro-|
 G,2 E,2 F,2 G,2 | C,4 C,2 C,C, | G,2 E,2 D,2 G,2 | C,4 E,2 F,2 | G,2 C,2 C4 | A,2 D2 G,2 A,2 | %29
w: lus, n'en par- lez|plus, le filz du|roy si um- bra-|geoit u- ne|tant bel- le-|a- my- e'a- voit|
 F,2 G,2 C,4- | C,4 z2 A,2 | CB,CA, B,2 A,2 | z8 | z4 z2 C2 | B,2 A,2 G,3 G, | F,2 E,2 D,E,F,D, | %36
w: tant bel- le,|_ tant|bel- le ieu- ne fil- le,||or,|my ren- dez moy|Ka- ro- lus, _ _ _|
 E,2 F,2 D,2 D,2 | C,2 C,3 C, G,2 | C,2 C4 B,2 | A,4 G,4 | C,2 C,C, G,2 C,2 | F,2 G,2 C,2 z2 | %42
w: _ n'en par- lez|plus, tou- tes les|foys qu'il la|bai- soit,|tou- tes les foys qu'il|la bai- soit,|
 A,2 F,2 G,2 E,2 | F,2 D,2 E,2 D,C, | D,4 z2 C,2 | F,2 D,2 G,2 C,2 | F,2 G,2 C,2 F,2 | %47
w: la po- vre fil-|le si trem- * *|bloit, la|po- vre fil- le|si trem- bloit, tant|
 F,F,C,C, G,2 C,2 | F,2 F,G, A,3 G, | F,2 E,2 D,4 | C,4 z4 | z4 z2 C2 | B,2 A,2 G,2 G,2 | %53
w: bel- le ieu- ne fil- le,|tant bel- le ieu- ne|fil- * *|le,|or,|my ren dez moy|
 F,2 E,2 D,2 z2 | z4 D,2 E,F, | E,C, D,2 C,2 C2 | B,2 A,2 G,2 D,2 | E,2 G,2 D,4 | z2 C,2 C,D,E,C, | %59
w: Ka- ro- lus,|tant bel- le|ieu- ne fil- le, or,my|ren- dez moy Ka-|ro- * lus,|tant bel- le ieu- ne|
 F,2 C,2 z2 D,2 | E,F,G,E, F,2 C,2 | G,2 F,2 E,2 D,2 | G,4 C,2 C,2 | G,2 G,2 C,4- | C,8 |] %65
w: fil- le, tant|bel- le ieu- ne fil- le,|n'en par- * *|lez plus, n'en|par- lez plus.|_|

